X: 11042
M: 6/8
L: 1/8
K: D
.F/.G/.A.A d2f | eEE E2D | F/G/AA ded | Tc>Bc dAF |\
cBA BAG | FdF E2D | F/G/AA d2A | FDD D2 |]
g |\
fab afd | g2f e2d | fab afd | afb afd |\
fab afd | g2f e2d | fab afd | afb afd |\
gab afd | gaf eag | fdf geg | fdd d2 |]



